img/icons/icon-phone.svg

<svg fill="none" height="25" viewBox="0 0 25 25" width="25" xmlns="http://www.w3.org/2000/svg"><path d="m22.3194 17.5776v3c.0011.2785-.0559.5541-.1675.8093s-.2752.4843-.4804.6725c-.2053.1883-.4476.3317-.7114.4209s-.5434.1223-.8207.0973c-3.0772-.3344-6.033-1.3859-8.63-3.07-2.4162-1.5354-4.46469-3.5839-6.00002-6-1.69003-2.6088-2.74176-5.57904-3.07-8.67003-.02499-.27654.00787-.55524.0965-.81838.08862-.26313.23107-.50493.41826-.71.1872-.20507.41504-.36891.66903-.4811.25398-.11219.52855-.17026.80621-.17052h3c.4853-.00478.95579.16708 1.32376.48353s.60831.75591.67624 1.23647c.12662.96006.36145 1.90272.70002 2.81.1345.35792.1636.74691.0839 1.12088-.0798.37396-.26506.71723-.53392.98912l-1.27 1.27003c1.42355 2.5035 3.49642 4.5764 6.00002 6l1.27-1.27c.2719-.2689.6151-.4542.9891-.5339.374-.0798.763-.0507 1.1209.0839.9072.3385 1.8499.5733 2.81.7.4857.0685.9294.3132 1.2465.6875s.4856.852.4735 1.3425z" stroke="#98bff9" stroke-linecap="round" stroke-linejoin="round" stroke-width="2"/></svg>

<svg width="25" height="25" viewBox="0 0 25 25" fill="none" xmlns="http://www.w3.org/2000/svg">
<path d="M22.3194 17.5776V20.5776C22.3205 20.8561 22.2635 21.1317 22.1519 21.3869C22.0403 21.6421 21.8767 21.8712 21.6715 22.0594C21.4662 22.2477 21.2239 22.3911 20.9601 22.4803C20.6963 22.5695 20.4167 22.6026 20.1394 22.5776C17.0622 22.2432 14.1064 21.1917 11.5094 19.5076C9.0932 17.9722 7.04471 15.9237 5.50938 13.5076C3.81935 10.8988 2.76762 7.92856 2.43938 4.83757C2.41439 4.56103 2.44725 4.28233 2.53588 4.01919C2.6245 3.75606 2.76695 3.51426 2.95414 3.30919C3.14134 3.10412 3.36918 2.94028 3.62317 2.82809C3.87715 2.7159 4.15172 2.65783 4.42938 2.65757H7.42938C7.91468 2.65279 8.38517 2.82465 8.75314 3.1411C9.12111 3.45755 9.36145 3.89701 9.42938 4.37757C9.556 5.33763 9.79083 6.28029 10.1294 7.18757C10.2639 7.54549 10.293 7.93448 10.2133 8.30845C10.1335 8.68241 9.94824 9.02568 9.67938 9.29757L8.40938 10.5676C9.83293 13.0711 11.9058 15.144 14.4094 16.5676L15.6794 15.2976C15.9513 15.0287 16.2945 14.8434 16.6685 14.7637C17.0425 14.6839 17.4315 14.713 17.7894 14.8476C18.6966 15.1861 19.6393 15.4209 20.5994 15.5476C21.0851 15.6161 21.5288 15.8608 21.8459 16.2351C22.163 16.6094 22.3315 17.0871 22.3194 17.5776Z" stroke="#98BFF9" stroke-width="2" stroke-linecap="round" stroke-linejoin="round"/>
</svg>
